X:1
T:Title
%%score [ ( 1 2 ) ( 3 4 ) ] { ( 5 6 ) | 7 }
L:1/8
Q:1/4=120
M:4/4
K:C
V:1 treble nm="Midi_74"
V:2 treble 
V:3 bass nm="Midi_74"
V:4 bass 
V:5 treble nm="Org."
V:6 treble 
V:7 bass 
V:1
 c8 | f4 e4 | d8 || d8 | c4 e4 | e4 d4 | e8 || B8 | e4 d4 | c8 || _B8 | A4 c4 | %12
"^William Henry Havergal\n(1793-1870)" c4 B4 | c8 |] %14
V:2
 G8 | F4 G4 | G8 || ^G8 | [EA]4 E4 | F4 A4 | ^G8 || ^G8 | A4 ^G4 | A8 || E8 | F4 G4 | F4 F4 | E8 |] %14
V:3
 E8 | C4 C4 | B,8 || E8 | E4 B,4 | A,4 A,4 | B,8 || E8 | E4 E4 | E8 || C8 | C4 C4 | D4 D4 | C8 |] %14
V:4
 C8 | A,4 C4 | G,8 || E,8 | A,4 G,4 | F,4 F,4 | E,8 || E,8 | C,4 (E,4 | [A,,A,]8) || C,8 | %11
 F,4 E,4 | D,4 G,4 | C,8 |] %14
V:5
 c8 | f4 e4 | d8 || d8 | c4 e4 | e4 d4 | e8 || B8 | e4 d4 | c8 || _B8 | A4 c4 | c4 B4 | c8 |] %14
V:6
 [EG]8 | [Fc]4 [Gc]4 | [GB]8 || [^GB]8 | A4 [EB]4 | [FA]4 A4 | ^G8 || [E^G]8 | [EA]4 [E^G]4 | %9
 [EA]8 || [CEG]8 | [CF]4 [CG]4 | [DF]4 [DF]4 | [CE]8 |] %14
V:7
 C8 | A,4 C4 | G,8 || E,8 | A,4 G,4 | F,4 F,4 | E,8 || E,8 | C,4 E,4 | [A,,A,]8 || C,8 | F,4 E,4 | %12
 D,4 G,4 | C,8 |] %14

